X:1
T:Crawford, 87.87.87
T:Crawford, 87.87.87
T:Luther Orlando Emerson, 1883
T:Public Domain Courtesy of the Cyber Hymnal™
C:Luther Orlando Emerson, 1883
Z:Public Domain
Z:Courtesy of the Cyber Hymnal™
%%score ( 1 2 ) ( 3 4 )
L:1/8
M:3/2
K:A
V:1 treble 
V:2 treble 
V:3 bass 
V:4 bass 
V:1
 [CA]2 [CE]2 | [DF]4 [CE]4 [EA]2 [EA]2 | [EB]4 [EB]4 [Ec]2 [Ee]2 | [Fd]4 [Ec]4 [Ec]2 [DB]2 | %4
 [CA]8 [EB]2 [EB]2 | [EB]4 [EG]4 [EA]2 [EB]2 | ([Ec]3 [DB]) [CB]4 [EB]2 [Ec]2 | %7
 [EB]4 [EG]4 [FA]2 [^DF]2 | E8 [CA]2 [CE]2 | [DF]4 [CE]4 [EA]2 [EA]2 | [EB]4 [EB]4 [Ec]2 [Ee]2 | %11
 [Fd]4 [Ec]4 [Ec]2 [DB]2 | [CA]8 |] %13
V:2
 x4 | x12 | x12 | x12 | x12 | x12 | x12 | x12 | E8 x4 | x12 | x12 | x12 | x8 |] %13
V:3
 [A,,A,]2 [A,,A,]2 | [A,,A,]4 [A,,A,]4 [C,A,]2 [C,A,]2 | [E,G,]4 [E,G,]4 A,2 [C,A,]2 | %3
 [D,A,]4 [A,,A,]4 [E,A,]2 [E,G,]2 | [A,,A,]8 [E,G,]2 [E,G,]2 | [E,G,]4 [E,B,]4 [E,C]2 [E,G,]2 | %6
 [A,,A,]4 [A,,A,]4 [E,G,]2 [E,A,]2 | [E,G,]4 [E,B,]4 [A,,C]2 [B,,B,]2 | [E,G,]8 [A,,A,]2 [A,,A,]2 | %9
 [A,,A,]4 [A,,A,]4 [C,A,]2 [C,A,]2 | [E,G,]4 [E,G,]4 A,2 [C,A,]2 | %11
 [D,A,]4 [A,,A,]4 [E,A,]2 [E,G,]2 | [A,,A,]8 |] %13
V:4
 x4 | x12 | x8 A,2 x2 | x12 | x12 | x12 | x12 | x12 | x12 | x12 | x8 A,2 x2 | x12 | x8 |] %13

